X:262
T:George White's Favourite
M:4/4
L:1/8
K:G
eBBB eBdB|AGAB AGEG|GABd eBBB| eBdB A2 Bd|
eBBB eBdB|AGAB AGEG|GABd gedB|AGAB G2 Bd :|
gede gaba|g2 ga gedB|dega bgag|eaag a2 ga|
bgeg d2 de|gede gaba|gfga gedB|1 AGAB G2 Bd :|2 AGAB G2 z2 ||
